X:1
T:Liber Generationis Jesu Christi
T:Liber Generationis Jesu Christi
T:Josquin
C:Josquin
%%score [ 1 2 3 4 ]
L:1/8
Q:1/4=120
M:2/2
K:F
V:1 treble nm="Soprano" snm="S"
V:2 treble nm="Alto" snm="A"
V:3 treble-8 nm="Tenor" snm="T"
V:4 bass nm="Bass" snm="B"
V:1
 c8- | c8 | A8 | z4 B4- | B4 A4 | G4 G4 | (A6 B2) | c8 | (d6 e2 | f8) | g8 | f6 ed | e8 | z4 f4 | %14
w: Li-||ber|ge-|* ne-|ra- ti-|o- *|nis|Je- *||su|Chri- * *|sti,|Je-|
 f4 g4 | f6 ed | e2 f4 e2 | f6 ed | c4 d4- | d4 B4 | c4 d2 f2- | f2 ed e4 | f4 c4 | d4 G4 | %24
w: su Chri-||||* sti,|_ fi-|li- i Da-|||* vid,|
 z4 A4- | A4 A4 | A4 B3 c | d3 e f4 | g6 fe | f8 | f6 ed | c4 z2 f2- | f2 ed e4 | A2 f4 ed | %34
w: fi-|* li-|i A- *|||bra-|ham. _ _|_ A-||bra- ham _ _|
 e2 c4 =B2 | c3 =B/c/ G2 c2 | d2 f4 ed | f2 e3 dcB | A2 c3 BAG | F8 | z8 | z8 | z8 | z8 | z8 | z8 | %46
w: _ au- *|tem _ _ _ ge-|nu- it _ _|_ I- * * *|* sa- * * *|ac.|||||||
 z4 c4 | c4 c4 | d4 c2 d2- | d2 cB d2 c2- | c2 c4 c2- | c2 d2 c2 d2- | dc A2 B2 A2 | B2 A4 G2 | %54
w: Ja-|cob au-|tem ge- *|* nu- * it Ju-|* dam et|_ fra- tres e-|||
 A4 z4 | z8 | z8 | z8 | z8 | z8 | z8 | z8 | z4 c4 | c4 c4 | d4 d4- | dc c4 =B2 | c6 A2 | B3 c A4- | %68
w: jus.||||||||Pha-|res au-|tem ge-|* * * nu-|it Es-||
 A2 GF G4 | A8 | A6 GF | c8 | z8 | z8 | z8 | z8 | z8 | z8 | z4 A4 | c6 d2 | e3 f g2 c2- | %81
w: |ron,|Es- * *|ron.|||||||A-|ram au-|tem _ _ ge-|
 c2 =BA B4 | c8 | c4 d4 | c2 c4 BA | B2 A4 G2 | A4 z2 A2 | A2 A2 c4- | c2 BA G3 A | Bc d3 c c2- | %90
w: * * * nu-|it|A- *|* mi- * *|* * na-|dab. A-|mi- na- dab|_ _ _ _ _|au- * * * *|
 c2 =B2 c4 | c4 e3 f | g4 g4- | g2 fe d2 e2- | e2 dc d4 | G8 | A8 | z4 A4 | B4 c4- | c4 A4 | %100
w: * * tam|ge- * *|* nu-|* * * it Na-|* * * as-|son.|_|Na-|as- son|_ au-|
 B4 c4 | A2 c3 d f2 | e2 d4 ^c2 | d8- | d8 | z8 | z8 | z8 | z8 | z8 | z8 | z8 | z8 | z8 | z8 | z8 | %116
w: |tem ge- nu- it|Sal- * *|mon.|_||||||||||||
 z8 | z8 | z8 | z4 A4 | B4 G4 | A3 B c4 | A3 B c2 c2 | c2 A2 B4 | A4 A4 | z4 A4 | c3 d ec f2- | %127
w: |||O-|bed au-|tem _ _|ge- * * nu-|it _ _|Jes- se.|Jes-|se _ _ _ _|
 fe d4 ^c2 | d2 f3 edc | d2 c4 =B2 | c4 c4 | c4 B4- | B4 A4- | A4 z2 A2 | c2 A=B cd e2- | %135
w: _ _ _ au-|tem ge- * * *|* * nu-|it Da-|vid re-|* gem.|_ Da-|vid au- * * * *|
 ed d4 ^c2 | d8 | z8 | z8 | z8 | z8 | z8 | A6 A2 | A4 G4 | c4 =B4- | B2 A2 c4- | c4 A4 | B4 A4- | %148
w: * * * tem|rex||||||ge- nu-|it Sa-|lo- mo|_ _ nem|_ ex|e- a|
 A4 A4 | B4 A4 | B4 A4- | A2 F2 G4 | A8- | A8- | A16 |] %155
w: _ quae|fu- it|U- ri-||ae.|_||
V:2
 z8 | F8- | F8 | D8- | D8 | E8 | C4 F4- | F4 F4 | F8 | D8 | B,4 C4 | D8 | G8 | F6 ED | C2 D4 ^C2 | %15
w: |Li-||ber|_|ge-|ne- ra-|* ti-|o-|nis|Je- *|su|_|Chri- * *||
 D3 E FG A2- | A2 GF G4 | F4 z4 | F8 | F4 G4- | G4 F3 G | A2 F2 G4 | F8 | z8 | z8 | F6 F2 | %26
w: ||sti,|fi-|li- i|_ Da- *||vid,|||fi- li-|
 F4 _E2 D2- | D2 CB, C2 D2- | D2 ^C=B, C4 | D8 | z4 F4 | F2 F2 F4 | G8 | z4 F4 | G4 F4 | E3 D E4 | %36
w: i A- *||* * * bra-|ham.|A-|bra- ham au-|tem|ge-|* nu-|it _ _|
 D3 C DE F2- | FGAB c2 A2- | A2 GF E4 | D8 | z8 | z8 | z8 | z8 | z8 | z8 | z8 | z4 F4 | F4 F4 | %49
w: I- * * * *|* * * * * sa-||ac.||||||||Ja-|cob au-|
 G4 F4 | F2 ED E2 E2 | C2 F2 E2 D2 | F3 E DC D2- | DCB,A, B,4 | A,4 F4 | G4 E3 F | G2 C2 D2 G,2 | %57
w: tem ge-|nu- * * it Ju-|dam et fra- tres|e- * * * *||jus. Ju-|das au- *||
 A,4 z2 C2- | CDEF G2 A2 | G2 A2 G2 A2 | G2 A4 F2 | G2 A3 GGF | A8- | A8 | F4 F4 | F4 G4- | G4 F4 | %67
w: tem ge-|* * * * * nu-|it Pha- res et|Za- * ram|de Tha- * * *|mar.|_|Pha- res|au- tem|_ ge-|
 G4 F4 | _E3 D E4 | D8 | z4 D4 | E4 C4 | D6 E2 | F4 D4 | E4 F4- | F2 F2 F4- | F2 E2 F2 E2- | %77
w: nu- it|Es- * *|ron.|Es-|ron au-|tem _|_ ge-||* nu- it|_ A- * *|
 ED D4 ^C2 | D4 F4 | E8 | z4 G4- | G4 G4 | G4 A4 | G2 A4 GF | A2 G4 E2 | F2 E4 D2 | E2 F4 ED | %87
w: ||ram.|A-|* ram|au- tem|ge- * nu- *|it A- *|mi- * *|* * na- *|
 F4 E4 | z2 E2 E2 E2 | G6 E2 | F3 G A4- | A4 G4 | E3 F G2 G2 | G6 FE | G2 A2 F4 | E8 | F8 | E4 F4 | %98
w: dab. _|A- mi- na-|dab au-|tem _ _|_ ge-|* nu- it Na-|as- * *||son.|_|Na- as-|
 B,4 A,4 | A6 A2 | G4 E4 | F2 E2 A4 | G2 F2 E4 | D8- | D4 z2 D2 | E2 C2 D3 E | F4 D3 E | %107
w: son _|au- tem|ge- nu-|it _ _|Sal- * *|mon.|_ Sal-|mon au- tem _|_ ge- *|
 F2 F2 F2 G2- | G2 F2 _E4 | D6 CB, | A,4 C4 | C4 C4 | A,8 | A,6 A,2 | C4 C4 | A,4 G,2 D2- | %116
w: * nu- it Bo-|* oz de|Ra- * *|hab. Bo-|oz au-|tem|ge- nu-|it O-|bed ex Ruth|
 DE F4 ED | C8 | D4 E4 | C4 F4- | F2 ED E4 | F8 | z4 F4 | C2 D2 _E4 | C8- | C8 | z8 | z8 | z8 | %129
w: _ _ _ _ _||O- bed|au- *||tem|ge-|nu- it Jes-|se,|_||||
 z8 | G4 A4 | G4 G4 | z2 F4 E2 | F2 E2 F4 | E4 z2 E2 | F4 E4 | D3 E F2 G2- | G2 ^F2 G4- | %138
w: |ge- *|nu- it|Da- vid|re- * *|gem. Da-|||* * vid|
 G2 FE F3 G | A2 G3 F A2- | AG F4 E2 | F8 | F6 F2 | F4 E4 | F4 G4- | G4 E4 | F8 | F4 F4- | F4 F4 | %149
w: _ au- * * *||* * * tem|rex|ge- nu-|it Sa-|lo- mo|_ _|nem|ex e-|* a|
 F8 | D4 C4 | D8 | E6 F2 | E4 F4 | E16 |] %155
w: quae|fu- it|U-|ri- *||ae.|
V:3
 z8 | z8 | z8 | z8 | z8 | c8- | c8 | A8 | z4 B4- | B4 A4 | G4 G4 | A4 =B4 | c8 | A8 | z4 G4 | A8 | %16
w: |||||Li-||ber|ge-|* ne-|ra- ti-|o- *||nis|Je-|su|
 c8 | A8 | z4 B4 | A4 G4 | G4 A4- | A2 =B2 c4 | z4 A4 | B4 c4- | c4 c4 | c8 | c4 B4- | B2 A2 A4 | %28
w: Chri-|sti,|fi-|li- i|Da- vid,|_ _ _|fi-||* li-|i|A- *|* bra- ham.|
 G8 | A8- | A8 | z4 c4 | c2 c2 c4 | d8 | c4 d4 | c4 c4 | B2 A2 B4 | A8 | z4 A4 | A4 B4 | %40
w: _|||A-|bra- ham au-|tem|ge- *|nu- it|I- * sa-|ac.|I-|sa- ac|
 G4 A2 c2- | c2 =B2 c2 e2 | d4 c4 | A4 B4 | c6 c2 | c4 B4 | A4 A4 | z2 A3 F F2- | F2 B2 A2 B2- | %49
w: au- * *||* tem|ge- *|* nu-|it _|Ja- cob|Ja- * cob|_ au- * *|
 B2 AG B2 A2 | F4 z4 | z8 | z8 | z8 | z2 A4 B2- | B2 G2 A2 c2- | c2 BA G4 | FGAB c4 | e8- | e8 | %60
w: |tem.||||Ju- das|au- * * *|* tem _ _|ge- * * * nu-|it|_|
 e4 f4 | e2 c2 d3 e | f2 e4 f2- | f2 ed e4 | d2 B2 d4 | c4 d4 | c4 A4 | G4 A4 | B8 | A8- | A8 | %71
w: Pha- *|res et Za- *|ram de Tha-||mar. Pha- res|au- *|tem ge-|nu- it|Es-|ron.|_|
 z4 A4 | B4 G4 | A6 B2 | c4 A4 | B4 c4- | c2 c2 c3 B/A/ | B2 A4 G2 | A8 | z4 c4 | c4 c4 | d8 | %82
w: Es-|ron au-|tem _|_ ge-||* nu- it _ _|_ A- *|ram.|A-|ram au-|tem|
 c4 f4 | e2 f4 ed | f2 e2 c4 | d2 A2 B4 | A6 A2 | A4 z4 | z8 | z8 | z8 | z8 | z8 | z8 | z8 | %95
w: ge- *||* nu- it|A- * *|mi- na-|dab.||||||||
 z4 c4 | c4 c4 | c4 d4- | d4 c4- | c4 d4- | d4 c4 | c6 A2 | B4 c4 | A4 z2 A2 | B2 A3 GAB | %105
w: Na-|as- son|au- tem|_ ge-||* nu-|it _|Sal- *|mon. Sal-|mon au- * * *|
 c3 B G4 | F2 A2 B2 c2 | A2 d3 cBA | G2 d4 c2 | B4 A4 | z4 A4 | F4 G4 | d4 c4 | d6 c2 | A4 G4 | %115
w: |tem ge- * nu-|it Bo- * * *|* oz de|Ra- hab|Bo-|oz au-|tem ge-|* nu-|it O-|
 c2 A2 B4- | B4 A4- | A4 z2 A2 | B4 G4 | A3 B c2 d2- | dcBA B4 | c4 A3 B | c2 d2 c2 f2- | %123
w: bed _ ex|_ Ruth.|_ O-|bed au-|tem _ _ ge-||nu- it _|_ Jes- * *|
 fe f2 g4 | f8 | z2 A2 c3 d | e2 f2 g2 a2 | d2 f2 e4 | d4 z2 f2- | fedc d4 | c6 A2 | c3 B G3 A | %132
w: |se,|Je- * *||* se au-|tem ge-||nu- it|Da- * * *|
 Bc d4 c2 | d2 c2 d4 | A8 | z4 A4 | B6 AG | A4 G3 A | B2 c4 =B2 | c8 | A4 B4 | c6 c2 | c8 | %143
w: * * * vid|re- * *|gem.|Da-||* vid _|_ au- tem|rex|ge- *|* nu-|it|
 c4 =B4 | c4 d4 | d4 c4 | c4 d4- | d4 c4 | c4 d4- | d4 c4 | B4 c4 | G8 | c6 A2 | c4 d4 | ^c16 |] %155
w: Sa- lo-|* mo-|nem ex|e- a|_ quae|fu- it|_ U-|ri- *|ae,|U- *|ri- *|ae.|
V:4
 z8 | z8 | z8 | z8 | z8 | z8 | F,8- | F,8 | D,8- | D,8 | _E,8 | D,8 | C,4 C,4 | D,4 F,4- | %14
w: ||||||Li-||ber|_|ge-|ne-|ra- ti-|o- *|
 F,2 E,D, E,4 | D,8 | z4 C,4 | D,4 F,4- | F,4 D,4- | D,4 _E,4- | E,4 D,4 | D,4 C,4 | (D,3 E, F,4) | %23
w: |nis|Je-|su Chri-|* sti,|_ fi-|* li-|i Da-|vid, _ _|
 D,4 E,4 | F,8 | F,4 F,4- | F,4 G,4- | G,4 F,4 | E,8 | D,8- | D,8 | F,8 | C,8 | z8 | z8 | z8 | z8 | %37
w: fi- *||li- i|_ A-||bra-|||ham.|_|||||
 z8 | z8 | D,4 D,4 | _E,4 C,3 D, | E,F, G,2 A,2 C2- | C2 =B,2 C2 F,2- | F,2 C2 B,2 G,2 | %44
w: ||I- sa-|ac au- *||* * tem _|_ ge- nu- it|
 A,2 F,2 C,2 F,2- | F,E, A,4 G,2 | A,2 C3 B,A,G, | F,8 | z8 | z8 | z8 | z8 | z8 | z8 | z4 D,4 | %55
w: Ja- * cob. Ja-|* cob au- *|tem ge- * nu- *|it.|||||||Ju-|
 _E,4 C,3 D, | E,2 F,4 E,2 | F,4 A,2 C2- | C2 C2 C4 | C4 C2 C2 | C4 D4 | C2 A,2 B,4 | A,8 | %63
w: das au- *||tem ge- *|* nu- it|Pha- res et|Za- ram|de _ Tha-|mar.|
 z4 A,4 | B,4 B,4 | A,4 G,4 | C,4 F,4 | _E,4 F,4 | G,8 | D,8- | D,8 | A,8 | G,6 E,2 | D,4 D,4 | %74
w: Pha-|res au-|tem ge-|nu- it|Es- *||ron.|_|Es-|ron _|_ au-|
 G,4 z4 | z4 A,4- | A,2 A,2 A,4 | G,2 F,2 E,4 | D,8 | A,6 =B,2 | C4 C,4 | G,8 | z8 | z8 | z8 | z8 | %86
w: tem|ge-|* nu- it|A- * *|ram.|A- *|ram au-|tem|||||
 z8 | z2 A,2 A,2 A,2 | C6 B,A, | G,4 B,2 C2 | D4 C4 | A,3 B, C2 C2 | C6 B,A, | G,2 C2 =B,2 C2- | %94
w: |A- mi- na-|dab _ _|_ au- *|* tem|ge- * * nu-|it _ _|_ Na- as- *|
 C2 A,2 B,4 | C8 | F,8 | z4 F,4 | G,4 A,4- | A,4 F,4 | G,4 A,4- | A,4 F,4 | G,4 A,4 | D,8- | D,8 | %105
w: ||son.|Na-|as- son|_ au-|tem ge-|* nu-|it Sal-|mon.|_|
 z8 | z8 | z8 | z8 | z4 D,4 | F,3 G, A,B, A,2- | A,2 F,2 E,4 | D,4 F,4- | F,2 F,2 F,4- | F,4 E,4 | %115
w: ||||Bo-|oz _ _ _ _|_ _ au-|tem ge-|* nu- it|_ O-|
 F,4 G,4 | D,6 E,2 | F,8 | z4 E,4 | F,8 | G,8 | F,8 | F,6 F,2 | F,4 _E,4 | F,8- | F,8 | z8 | z8 | %128
w: bed ex|Ruth _|_|O-|bed|au-|tem|ge- nu-|it Jes-|se.|_|||
 z8 | z8 | z8 | z8 | z8 | z8 | z8 | z8 | z8 | D,4 _E,4- | E,2 C,2 D,4 | C,3 D, E,2 F,2- | %140
w: |||||||||Da- *||vid _ _ au-|
 F,2 A,2 G,4 | F,8 | F,6 F,2 | F,4 G,4 | A,4 G,4- | G,4 C,4 | F,8 | B,,4 F,4- | F,4 F,4 | %149
w: * * tem|rex|ge- nu-|it Sa-|lo- mo-||nem|ex e-|* a|
 B,,4 F,4 | G,4 A,4 | B,8 | A,8- | A,4 D,4 | A,16 |] %155
w: quae fu-|it _|U-|ri-||ae.|

